packages/foundations/assets/icons/functional/images/transportation/pedestrian_16.svg

<svg width="16" height="16" viewBox="0 0 16 16" fill="none" xmlns="http://www.w3.org/2000/svg">
<g clip-path="url(#clip0_187_924)">
<path fill-rule="evenodd" clip-rule="evenodd" d="M4.98074 12.9968L6.95038 9.08479L7.12962 6.92959L6.48958 7.21115L6.33598 8.31199C6.28478 8.72159 5.92638 9.00323 5.54234 9.00323C5.10718 9.00323 4.74878 8.61919 4.74878 8.20959C4.74878 8.15839 4.74878 8.10719 4.74878 8.08163L5.00478 6.54563C5.03034 6.26399 5.20958 6.03363 5.43994 5.93123L7.00158 5.21443C7.25758 5.11203 7.69274 4.85595 7.99994 4.85595C8.28158 4.85595 8.61434 5.11203 8.79358 5.21443L10.8928 6.54563C11.0976 6.69915 11.2512 6.95523 11.2512 7.23679C11.2512 7.69759 10.8671 8.03035 10.4575 8.03035C10.2784 8.03035 10.1248 7.97923 9.99682 7.90239L8.71674 7.05763L8.57403 9.10592L10.0016 10.3855C10.1551 10.4879 10.2728 10.6384 10.3344 10.8208L11.1743 13.176C11.1743 13.2527 11.2 13.3296 11.2 13.4064C11.2 13.816 10.8416 14.2 10.4064 14.2C10.0224 14.2 9.71518 13.9695 9.61278 13.6112L8.84958 11.5376L7.91048 10.5878L6.33758 13.7904C6.18398 14.0464 5.95362 14.2 5.64642 14.2C5.18554 14.2 4.85278 13.816 4.85278 13.4064C4.85278 13.2527 4.87834 13.1248 4.98074 12.9968ZM6.95038 2.99995C6.95038 2.3362 7.51208 1.79999 8.15042 1.79999C8.83974 1.79999 9.35038 2.3362 9.35038 2.99995C9.35038 3.63829 8.83974 4.19999 8.15042 4.19999C7.51208 4.19999 6.95038 3.63829 6.95038 2.99995Z" fill="#1A1C1F"/>
</g>
<defs>
<clipPath id="clip0_187_924">
<rect width="16" height="16" fill="white"/>
</clipPath>
</defs>
</svg>

<svg xmlns="http://www.w3.org/2000/svg" width="16" height="16" fill="none"><g clip-path="url(#a)"><path fill="#1A1C1F" fill-rule="evenodd" d="m4.98 12.997 1.97-3.912.18-2.155-.64.281-.154 1.101a.8.8 0 0 1-.794.691.815.815 0 0 1-.793-.793v-.128l.256-1.536a.75.75 0 0 1 .435-.615l1.562-.717c.256-.102.69-.358.998-.358.282 0 .614.256.794.358l2.099 1.332c.205.153.358.41.358.69 0 .462-.384.794-.793.794a.9.9 0 0 1-.461-.128l-1.28-.844-.143 2.048 1.428 1.28a.85.85 0 0 1 .332.435l.84 2.355c0 .077.026.154.026.23 0 .41-.358.794-.794.794a.8.8 0 0 1-.793-.589l-.763-2.073-.94-.95-1.572 3.202c-.154.256-.384.41-.692.41a.797.797 0 0 1-.793-.794c0-.153.025-.281.128-.41M6.95 3c0-.664.562-1.2 1.2-1.2.69 0 1.2.536 1.2 1.2 0 .638-.51 1.2-1.2 1.2-.638 0-1.2-.562-1.2-1.2" clip-rule="evenodd"/></g><defs><clipPath id="a"><path fill="#fff" d="M0 0h16v16H0z"/></clipPath></defs></svg>
